assets/icons/fog.svg

<?xml version="1.0" encoding="UTF-8"?>
<svg width="24px" height="24px" viewBox="0 0 24 24" version="1.1" xmlns="http://www.w3.org/2000/svg" xmlns:xlink="http://www.w3.org/1999/xlink">
    <!-- Generator: Sketch 53.2 (72643) - https://sketchapp.com -->
    <title>Icon/Weather/Fog</title>
    <desc>Created with Sketch.</desc>
    <g id="Icon/Weather/Fog" stroke="none" stroke-width="1" fill="none" fill-rule="evenodd">
        <path d="M0,16.2580645 C0,16.0645161 0.0967741935,15.7741935 0.193548387,15.6774194 C0.290322581,15.5806452 0.580645161,15.483871 0.774193548,15.483871 L18.8709677,15.483871 C19.0645161,15.483871 19.3548387,15.5806452 19.4516129,15.6774194 C19.5483871,15.7741935 19.7419355,16.0645161 19.7419355,16.2580645 C19.7419355,16.4516129 19.6451613,16.6451613 19.5483871,16.8387097 C19.3548387,17.0322581 19.1612903,17.0322581 18.9677419,17.0322581 L0.870967742,17.0322581 C0.677419355,17.0322581 0.387096774,16.9354839 0.290322581,16.8387097 C0.0967741935,16.7419355 0,16.5483871 0,16.2580645 Z M2.51612903,13.2580645 C2.51612903,13.0645161 2.61290323,12.8709677 2.80645161,12.6774194 C3,12.5806452 3.09677419,12.483871 3.38709677,12.483871 L21.483871,12.483871 C21.6774194,12.483871 21.8709677,12.5806452 22.0645161,12.6774194 C22.2580645,12.7741935 22.2580645,13.0645161 22.2580645,13.2580645 C22.2580645,13.4516129 22.1612903,13.6451613 22.0645161,13.8387097 C21.8709677,14.0322581 21.6774194,14.0322581 21.483871,14.0322581 L3.38709677,14.0322581 C3.19354839,14.0322581 3,13.9354839 2.80645161,13.8387097 C2.61290323,13.6451613 2.51612903,13.4516129 2.51612903,13.2580645 Z M2.70967742,10.9354839 C2.70967742,11.0322581 2.80645161,11.0322581 2.90322581,11.0322581 L4.25806452,11.0322581 C4.35483871,11.0322581 4.35483871,10.9354839 4.4516129,10.8387097 C4.64516129,10.3548387 5.03225806,9.96774194 5.51612903,9.58064516 C6,9.29032258 6.48387097,9.09677419 7.06451613,9 L7.64516129,8.90322581 C7.74193548,8.90322581 7.83870968,8.80645161 7.83870968,8.70967742 L7.93548387,8.22580645 C8.03225806,7.16129032 8.51612903,6.29032258 9.29032258,5.61290323 C10.0645161,4.93548387 11.0322581,4.5483871 12,4.5483871 C13.0645161,4.5483871 13.9354839,4.93548387 14.7096774,5.61290323 C15.483871,6.29032258 15.9677419,7.16129032 16.0645161,8.22580645 L16.1612903,8.80645161 C16.1612903,8.90322581 16.2580645,9 16.3548387,9 L17.9032258,9 C18.483871,9 19.0645161,9.19354839 19.6451613,9.48387097 C20.2258065,9.77419355 20.516129,10.2580645 20.8064516,10.8387097 C20.9032258,10.9354839 20.9032258,11.0322581 21,11.0322581 L22.3548387,11.0322581 C22.4516129,11.0322581 22.5483871,10.9354839 22.4516129,10.8387097 C22.1612903,9.87096774 21.5806452,9 20.8064516,8.41935484 C19.9354839,7.83870968 18.9677419,7.4516129 17.9032258,7.4516129 L17.6129032,7.4516129 C17.3225806,6.19354839 16.6451613,5.12903226 15.5806452,4.25806452 C14.516129,3.38709677 13.3548387,3 12.0967742,3 C10.7419355,3 9.58064516,3.38709677 8.51612903,4.25806452 C7.4516129,5.12903226 6.77419355,6.19354839 6.48387097,7.5483871 C5.61290323,7.74193548 4.93548387,8.12903226 4.35483871,8.70967742 C3.77419355,9.29032258 2.90322581,10.0645161 2.70967742,10.9354839 L2.70967742,10.9354839 C2.70967742,10.8387097 2.70967742,10.9354839 2.70967742,10.9354839 Z M4.25806452,19.2580645 C4.25806452,19.0645161 4.35483871,18.8709677 4.5483871,18.6774194 C4.74193548,18.5806452 4.83870968,18.483871 5.12903226,18.483871 L23.2258065,18.483871 C23.4193548,18.483871 23.6129032,18.5806452 23.8064516,18.6774194 C24,18.8709677 24,19.0645161 24,19.2580645 C24,19.4516129 23.9032258,19.6451613 23.8064516,19.8387097 C23.7096774,20.0322581 23.4193548,20.1290323 23.1290323,20.1290323 L5.03225806,20.1290323 C4.83870968,20.1290323 4.64516129,20.0322581 4.4516129,19.8387097 C4.35483871,19.6451613 4.25806452,19.4516129 4.25806452,19.2580645 Z" id="Shape" fill="#000000"></path>
    </g>
</svg>

<svg class="ucla-icon fog" width="24" height="24" viewBox="0 0 24 24" aria-labelledby="icon-fog" role="img"><title id="icon-fog">Icon Weather/Fog</title><g fill="none" fill-rule="evenodd"><path d="M0 16.258c0-.193.097-.484.194-.58.096-.097.387-.194.58-.194h18.097c.194 0 .484.097.58.193.097.097.29.388.29.581 0 .194-.096.387-.193.58-.193.194-.387.194-.58.194H.87c-.194 0-.484-.097-.58-.193-.194-.097-.291-.29-.291-.58zm2.516-3c0-.193.097-.387.29-.58.194-.097.29-.194.581-.194h18.097c.193 0 .387.097.58.193.194.097.194.388.194.581 0 .194-.097.387-.193.58-.194.194-.388.194-.581.194H3.387c-.193 0-.387-.097-.58-.193-.194-.194-.29-.387-.29-.58zm.194-2.323c0 .097.096.097.193.097h1.355c.097 0 .097-.097.194-.193.193-.484.58-.871 1.064-1.258C6 9.29 6.484 9.097 7.065 9l.58-.097a.208.208 0 0 0 .194-.193l.096-.484c.097-1.065.581-1.936 1.355-2.613.775-.678 1.742-1.065 2.71-1.065 1.065 0 1.935.387 2.71 1.065.774.677 1.258 1.548 1.355 2.613l.096.58c0 .097.097.194.194.194h1.548c.58 0 1.162.194 1.742.484.58.29.871.774 1.161 1.355.097.096.097.193.194.193h1.355c.097 0 .193-.097.097-.193-.29-.968-.871-1.839-1.646-2.42-.87-.58-1.838-.967-2.903-.967h-.29c-.29-1.258-.968-2.323-2.032-3.194C14.516 3.388 13.355 3 12.097 3c-1.355 0-2.516.387-3.58 1.258-1.065.871-1.743 1.936-2.033 3.29a4.182 4.182 0 0 0-2.13 1.162c-.58.58-1.45 1.355-1.644 2.225 0-.096 0 0 0 0zm1.548 8.323c0-.193.097-.387.29-.58.194-.097.29-.194.581-.194h18.097c.193 0 .387.097.58.193.194.194.194.388.194.581 0 .194-.097.387-.194.58-.096.194-.387.291-.677.291H5.032c-.193 0-.387-.097-.58-.29-.097-.194-.194-.387-.194-.58z" id="Shape" fill="#000"/></g></svg>
